X: 21
T: Kitty Kick-away
%R: jig
B: "Twenty Four Country Dances with Figures for the Year 1810", Button & Whitaker, p.11 #1
F: http://www.vwml.org/browse/browse-collections-dance-tune-books/browse-button1810
Z: 2014 John Chambers <jc:trillian.mit.edu>
N: Added final rest to fix the rhythm in repeats.
M: 6/8
L: 1/8
K: G
% - - - - - - - - - - - - - - - - - - - - - - - - - - - - -
|:\
d>ed Bcd | e^de gfe | d>ed d>cB | c2A A2d |\
d>ed B>cd | e^de gfe | ded cBA | G2G G2z :|
|:\
A>BA c2A | B2d d>ed | ^cec ABc | de^c def |\
gdB GBd | e^de gfe | dBg {g}fef | g2g g2z :|
% - - - - - - - - - - Dance description - - - - - - - - - -
%%begintext align
%%     Set and hands across back again lead down
%% the middle up again right and left at top :|:
%%endtext

%%sep 1 1 500
%%sep 1 1 500
